Obsidian-SemiLight/actions/24s/preflight-verifier.svg

<svg viewBox="0 0 24 24" xmlns="http://www.w3.org/2000/svg"><path d="m5 4v16h9v-1h-8v-14h12v9h1v-10zm2 2v5h5v-5zm6 0v1h4v-1zm0 2v1h4v-1zm0 2v1h4v-1zm-6 2v1h10v-1zm0 2v1h7v-1zm14.445312 0-4.591796 4.591797-1.146485-1.146485-.707031.707032 1.845703 1.847656.005859-.007812.007813.007812 5.292969-5.292969zm-14.445312 2v1h7v-1z" fill="#4d4d4d"/></svg>

<svg xmlns="http://www.w3.org/2000/svg" viewBox="0 0 24 24">
  <defs id="defs3051">
    <style type="text/css" id="current-color-scheme">
      .ColorScheme-Text {
        color:#4d4d4d;
      }
      </style>
  </defs>
 <path style="fill:currentColor;fill-opacity:1;stroke:none" 
     d="M 5 4 L 5 20 L 14 20 L 14 19 L 6 19 L 6 5 L 18 5 L 18 14 L 19 14 L 19 4 L 5 4 z M 7 6 L 7 11 L 12 11 L 12 6 L 7 6 z M 13 6 L 13 7 L 17 7 L 17 6 L 13 6 z M 13 8 L 13 9 L 17 9 L 17 8 L 13 8 z M 13 10 L 13 11 L 17 11 L 17 10 L 13 10 z M 7 12 L 7 13 L 17 13 L 17 12 L 7 12 z M 7 14 L 7 15 L 14 15 L 14 14 L 7 14 z M 21.445312 14 L 16.853516 18.591797 L 15.707031 17.445312 L 15 18.152344 L 16.845703 20 L 16.851562 19.992188 L 16.859375 20 L 22.152344 14.707031 L 21.445312 14 z M 7 16 L 7 17 L 14 17 L 14 16 L 7 16 z "
     class="ColorScheme-Text"
     />
</svg>
